src/css/fonts/SVGs/iota_icons/hornet_icon.svg

<svg width="48" height="48" viewBox="0 0 48 48" fill="none" xmlns="http://www.w3.org/2000/svg">
<path d="M32.5875 20.6624C34.8497 19.1971 36.301 16.8316 36.8132 13.8381C37.176 11.6192 36.8986 9.83988 36.8986 9.75614C36.8559 9.44214 36.6425 9.19094 36.3437 9.06534C36.0449 8.93974 35.7034 9.00254 35.4687 9.19094L21.7458 19.5948C21.9806 18.6737 21.8099 17.7317 21.255 16.9781C20.3586 15.8059 18.8433 15.5965 17.6482 16.0571L17.4775 15.9524C16.6024 15.3872 15.6847 15.2616 14.767 15.5965C12.9957 16.2455 11.6084 18.5481 11.0109 20.5368C10.9682 20.7043 11.0536 20.8927 11.2243 20.9555C11.267 20.9764 11.3097 20.9764 11.3737 20.9764C11.5017 20.9764 11.6298 20.9136 11.6938 20.788C12.6329 18.9249 14.1908 17.3131 15.3219 17.0409C15.6421 16.9572 15.9195 16.9991 16.1543 17.1456L16.2183 17.1875C15.6207 17.9201 15.2579 18.8621 15.1299 19.9716C15.0018 21.1229 15.1725 22.3789 15.5567 23.2372C15.7061 23.5721 16.0262 23.7605 16.389 23.7605C16.4744 23.7605 16.5811 23.7396 16.6665 23.7187C17.4988 23.4465 18.8433 22.9232 19.9531 22.1068C19.8037 22.4208 19.7184 22.7557 19.697 23.1116C19.633 23.928 19.8891 24.7235 20.4226 25.3515C20.9562 25.9795 21.7245 26.3772 22.5568 26.44C22.6422 26.44 22.7489 26.4609 22.8343 26.4609C22.8556 26.4609 22.8983 26.4609 22.9196 26.4609C22.1513 27.5285 21.8739 29.0357 22.5995 30.6895C24.1788 34.2481 22.194 36.6136 20.7855 37.4509C20.4653 37.6393 20.2946 38.0161 20.4013 38.372C20.508 38.7279 20.8281 38.9791 21.2123 39C21.3403 39 21.4684 39 21.5964 39C26.6758 39 28.9167 36.5508 29.8131 35.0645C31.243 32.6781 31.1789 29.6009 29.6423 27.0471C28.8527 25.7283 27.3161 24.6397 25.5874 24.87C25.8008 24.4932 25.9288 24.0955 25.9715 23.6559C26.0142 23.1744 25.9502 22.7139 25.7581 22.2743C26.1636 22.3161 26.5691 22.3371 26.9959 22.3371C28.7246 22.2743 30.7094 21.8975 32.5875 20.6624ZM16.9653 21.6881C16.8799 21.2276 16.8372 20.6833 16.9012 20.1181C16.9866 19.3855 17.2427 18.4016 18.0537 17.8364C18.2458 17.6899 18.5446 17.6061 18.8433 17.6061C19.1848 17.6061 19.5476 17.7317 19.7824 18.0457C20.2092 18.6319 20.0171 19.4064 19.633 19.9088C19.1208 20.5577 18.1817 21.2067 16.9653 21.6881ZM22.6849 24.6397C22.3221 24.6188 22.0019 24.4513 21.7672 24.1792C21.5324 23.9071 21.4257 23.5721 21.4471 23.2163C21.4684 22.8604 21.6391 22.5464 21.9166 22.3161C22.1513 22.1068 22.4715 22.0021 22.7702 22.0021C22.8129 22.0021 22.8556 22.0021 22.877 22.0021C23.2398 22.0231 23.5599 22.1905 23.7947 22.4627C24.0294 22.7348 24.1361 23.0697 24.1148 23.4256C24.0934 23.7815 23.9227 24.0955 23.6453 24.3257C23.3892 24.556 23.0477 24.6607 22.6849 24.6397ZM26.0569 26.4609C26.6118 26.4609 27.2094 26.6912 27.7429 27.2773C27.8069 27.3401 27.8069 27.4239 27.7856 27.4867C27.4655 28.1565 26.7825 28.9729 26.1209 29.3916C26.0142 29.4544 25.9715 29.6009 26.0142 29.7056C26.0569 29.8312 26.2063 29.894 26.3343 29.8731C26.8679 29.7684 27.6362 29.4753 28.2765 29.0776C28.3405 29.0357 28.3832 29.0148 28.4472 28.9729C28.5539 28.8892 28.7246 28.952 28.7673 29.0776C29.0448 29.8521 29.1728 30.6476 29.1515 31.4221C29.1515 31.5059 29.0874 31.5896 29.0021 31.6105C28.3191 31.8408 27.5081 31.9664 26.8679 31.8617C26.7185 31.8408 26.5691 31.8827 26.5264 32.0292C26.4624 32.1757 26.5478 32.3013 26.6758 32.3851C27.1453 32.6572 27.8496 32.9503 28.5966 33.1177C28.7246 33.1387 28.81 33.2852 28.746 33.3899C28.6393 33.662 28.5112 33.9132 28.3618 34.1644C28.1271 34.5621 27.8496 34.918 27.5295 35.232C27.4655 35.2948 27.3587 35.3157 27.2734 35.2739C26.9319 35.1064 26.6118 34.8971 26.377 34.7087C26.2917 34.6249 26.1636 34.6249 26.0782 34.7087C25.9929 34.7715 25.9502 34.918 26.0142 35.0227C26.1209 35.232 26.313 35.5041 26.5264 35.7972C26.5904 35.9019 26.5691 36.0275 26.4837 36.0903C25.8008 36.5089 25.0325 36.8229 24.1575 37.0323C23.9654 37.0741 23.8373 36.8857 23.9227 36.7183C25.2246 34.6459 25.0965 32.0292 24.2002 29.9987C23.4959 28.4077 24.2002 27.1727 25.1605 26.7121C25.374 26.5447 25.6941 26.4609 26.0569 26.4609ZM24.0508 20.0972L35.1912 11.6401C35.1699 13.6916 34.6363 17.2084 31.5844 19.1971C28.8954 20.9345 25.8221 20.5577 24.0508 20.0972Z" fill="black"/>
</svg>

<svg xmlns="http://www.w3.org/2000/svg" viewBox="0 0 48 48">
  <path d="M32.587 20.662c2.263-1.465 3.714-3.83 4.226-6.824.363-2.219.086-3.998.086-4.082a.883.883 0 0 0-.555-.69.874.874 0 0 0-.875.125L21.746 19.595c.235-.921.064-1.863-.491-2.617-.896-1.172-2.412-1.382-3.607-.92l-.17-.106c-.876-.565-1.793-.69-2.711-.355-1.771.649-3.159 2.951-3.756 4.94a.354.354 0 0 0 .213.419.34.34 0 0 0 .15.02.353.353 0 0 0 .32-.188c.939-1.863 2.497-3.475 3.628-3.747.32-.084.598-.042.832.105l.064.041c-.597.733-.96 1.675-1.088 2.785-.128 1.15.042 2.407.427 3.265.15.335.47.524.832.524.085 0 .192-.021.277-.042.833-.273 2.177-.796 3.287-1.612-.15.314-.235.649-.256 1.005a3.067 3.067 0 0 0 .726 2.24 3.113 3.113 0 0 0 2.134 1.088c.085 0 .192.02.277.02h.086c-.769 1.069-1.046 2.576-.32 4.23 1.579 3.558-.406 5.924-1.815 6.76-.32.19-.49.566-.384.922a.888.888 0 0 0 .811.628h.384c5.08 0 7.32-2.45 8.217-3.935 1.43-2.387 1.366-5.464-.17-8.018-.79-1.319-2.327-2.407-4.056-2.177.214-.377.342-.774.384-1.214a2.777 2.777 0 0 0-.213-1.382c.406.042.811.063 1.238.063 1.729-.063 3.713-.44 5.591-1.675Zm-15.622 1.026a5.377 5.377 0 0 1-.064-1.57c.086-.732.342-1.716 1.153-2.282.192-.146.49-.23.79-.23.34 0 .704.126.938.44.427.586.235 1.36-.149 1.863-.512.649-1.451 1.298-2.668 1.78Zm5.72 2.952a1.3 1.3 0 0 1-.918-.46 1.324 1.324 0 0 1-.32-.964c.021-.356.192-.67.47-.9.234-.21.554-.314.853-.314h.107a1.3 1.3 0 0 1 .918.46c.234.273.341.608.32.964-.022.356-.192.67-.47.9-.256.23-.597.335-.96.314Zm3.372 1.82c.555 0 1.152.231 1.686.817a.197.197 0 0 1 .043.21c-.32.67-1.004 1.486-1.665 1.905a.266.266 0 0 0-.107.314c.043.125.192.188.32.167.534-.105 1.302-.398 1.942-.795.064-.042.107-.063.171-.105.107-.084.278-.021.32.105.278.774.406 1.57.384 2.344a.202.202 0 0 1-.149.188c-.683.23-1.494.356-2.134.252-.15-.021-.299.02-.342.167-.064.147.022.272.15.356.47.272 1.174.565 1.92.733.129.02.214.167.15.272a5.25 5.25 0 0 1-.384.774 5.163 5.163 0 0 1-.832 1.068.23.23 0 0 1-.257.042 5.017 5.017 0 0 1-.896-.565.209.209 0 0 0-.299 0c-.085.063-.128.209-.064.314.107.209.299.481.512.774.064.105.043.23-.042.293a7.936 7.936 0 0 1-2.327.942c-.192.042-.32-.146-.234-.314 1.302-2.072 1.174-4.689.277-6.72-.704-1.59 0-2.825.96-3.286.214-.167.534-.251.897-.251Zm-2.006-6.363 11.14-8.457c-.021 2.052-.555 5.568-3.607 7.557-2.689 1.738-5.762 1.36-7.533.9Z"/>
</svg>
